X:1
T: Flirtation
P:Kerr's Collection p.30 no.1
R:Jig
Q:180
K:Am
M:6/8
L:1/16
E2|A4B2 c4d2|e2c2A2 e2c2A2|G4A2 B4c2|d2e2d2 d2B2G2|A4B2 c4d2|e2c2A2 B2c2d2|e2f2e2 d2c2B2|A6 a4A2|
E2A2A2 A4B2|c4B2 c4A2|G6 G4E2|G6 G4A2|E2A2A2 A4B2|c4B2 c4d2|e6 e4d2|e6 e4c2|
e4e2 e2d2c2|d4d2 d4B2|c4c2 c2B2A2|B4B2 B2c2d2|e6 d6|c6 B6|E2A2A2 A4^G2|A6 A4E2|
A4B2 c4d2|e2c2A2 e2c2A2|G4A2 B4c2|d2e2d2 d2B2G2|A4B2 c4d2|e2c2A2 B2c2d2|e2f2e2 d2c2B2|A6 a4||
